icon-themes/breeze_svg/cmd/sc_graphicfilterrelief.svg

<svg viewBox="0 0 16 16" xmlns="http://www.w3.org/2000/svg"><path d="m2 2v12h3v-1h-2v-10h10v8h1v-9zm4 4v4h4v-4zm1 1h2v2h-2z" fill="#b3b3b3"/><path d="m3 3v10h2v-1h-1v-8h8v7h1v-8zm4 4v2h2v-2z" fill="#4d4d4d"/><path d="m7 12a1 .99998522 0 0 0 -1 1 1 .99998522 0 0 0 1 1 1 .99998522 0 0 0 1-1 1 .99998522 0 0 0 -1-1zm3 0a1 .99998522 0 0 0 -1 1 1 .99998522 0 0 0 1 1 1 .99998522 0 0 0 1-1 1 .99998522 0 0 0 -1-1zm3 0a1.000002 1 0 0 0 -1 1 1.000002 1 0 0 0 1 1 1.000002 1 0 0 0 1-1 1.000002 1 0 0 0 -1-1z" fill="#f47750"/></svg>

<svg xmlns="http://www.w3.org/2000/svg" viewBox="0 0 16 16">
 <path 
     style="fill:#b3b3b3" 
     d="M 2 2 L 2 14 L 5 14 L 5 13 L 3 13 L 3 3 L 13 3 L 13 11 L 14 11 L 14 2 L 2 2 z M 6 6 L 6 10 L 10 10 L 10 6 L 6 6 z M 7 7 L 9 7 L 9 9 L 7 9 L 7 7 z "
     />
 <path 
     style="fill:#4d4d4d" 
     d="M 3 3 L 3 13 L 5 13 L 5 12 L 4 12 L 4 4 L 12 4 L 12 11 L 13 11 L 13 3 L 3 3 z M 7 7 L 7 9 L 9 9 L 9 7 L 7 7 z "
     />
 <path 
     style="fill:#f47750" 
     d="M 7 12 A 1 0.99998522 0 0 0 6 13 A 1 0.99998522 0 0 0 7 14 A 1 0.99998522 0 0 0 8 13 A 1 0.99998522 0 0 0 7 12 z M 10 12 A 1 0.99998522 0 0 0 9 13 A 1 0.99998522 0 0 0 10 14 A 1 0.99998522 0 0 0 11 13 A 1 0.99998522 0 0 0 10 12 z M 13 12 A 1.000002 1 0 0 0 12 13 A 1.000002 1 0 0 0 13 14 A 1.000002 1 0 0 0 14 13 A 1.000002 1 0 0 0 13 12 z "
     />
 </svg>
